build-source/logos/rteradio1.default.svg

<?xml version="1.0" encoding="UTF-8" standalone="no"?>
<!-- Created with Inkscape (http://www.inkscape.org/) -->
<svg
   xmlns:dc="http://purl.org/dc/elements/1.1/"
   xmlns:cc="http://web.resource.org/cc/"
   xmlns:rdf="http://www.w3.org/1999/02/22-rdf-syntax-ns#"
   xmlns:svg="http://www.w3.org/2000/svg"
   xmlns="http://www.w3.org/2000/svg"
   xmlns:xlink="http://www.w3.org/1999/xlink"
   xmlns:sodipodi="http://sodipodi.sourceforge.net/DTD/sodipodi-0.dtd"
   xmlns:inkscape="http://www.inkscape.org/namespaces/inkscape"
   width="946"
   height="158"
   id="svg2"
   sodipodi:version="0.32"
   inkscape:version="0.45.1"
   version="1.0">
  <g
     inkscape:label="Layer 1"
     inkscape:groupmode="layer"
     id="layer1"
     transform="translate(-388.09758,-352.73071)">
    <path
       style="fill:#008a57"
       id="path3987"
       d="M 763.08262,451.35686 L 766.71101,451.35686 L 805.90535,508.57671 L 823.60101,508.57671 L 782.34994,450.13446 C 802.29637,448.40758 814.83079,434.22389 814.83079,414.16104 C 814.83079,384.78469 791.9739,378.20703 767.42893,378.20703 L 748.66609,378.20703 L 748.66609,508.55731 L 763.10203,508.55731 L 763.10203,451.35686 L 763.08262,451.35686 z M 763.08262,391.69221 L 767.40952,391.69221 C 784.75593,391.69221 800.37546,393.76834 800.37546,415.18941 C 800.37546,435.44628 783.88279,438.53138 767.56475,438.53138 L 763.10203,438.53138 L 763.10203,391.69221 L 763.08262,391.69221 z "
       clip-path="none" />
    <path
       style="fill:#008a57"
       id="path3989"
       d="M 961.94539,508.53791 L 985.98587,508.53791 C 1006.2428,508.53791 1021.7071,505.95729 1037.1519,492.12285 C 1051.3744,479.35559 1058.282,462.61068 1058.282,443.61501 C 1058.282,424.27008 1051.5685,406.82666 1036.8027,394.02058 C 1021.5324,380.90406 1005.7383,378.30404 986.33513,378.30404 L 961.94539,378.30404 L 961.94539,508.53791 L 961.94539,508.53791 z M 976.38132,495.07213 L 976.38132,391.82803 L 986.83961,391.82803 C 1002.1099,391.82803 1015.1876,393.86536 1027.0041,404.40126 C 1038.1609,414.25806 1043.8266,428.57757 1043.8266,443.45978 C 1043.8266,457.93452 1038.3355,471.57493 1027.6832,481.60635 C 1015.8473,492.84077 1002.6338,495.07213 986.83961,495.07213 L 976.38132,495.07213 z "
       clip-path="none" />
    <rect
       style="fill:#008a57"
       x="1078.5778"
       y="378.34247"
       width="14.416531"
       height="130.19505"
       id="rect3991"
       clip-path="none" />
    <path
       style="fill:#008a57"
       id="path4001"
       d="M 1180.1337,376.13089 C 1143.2483,376.13089 1112.7078,406.36098 1112.7078,443.61501 C 1112.7078,481.06306 1143.2289,510.73046 1180.1337,510.73046 C 1216.9802,510.73046 1247.5402,481.06306 1247.5402,443.61501 C 1247.5402,406.34158 1216.9802,376.13089 1180.1337,376.13089 M 1180.1337,389.59667 C 1209.7817,389.59667 1233.1236,413.9282 1233.1236,443.40157 C 1233.1236,472.75852 1209.4518,497.22588 1180.1337,497.22588 C 1150.7767,497.22588 1127.1437,472.73912 1127.1437,443.40157 C 1127.1243,413.9282 1150.4663,389.59667 1180.1337,389.59667"
       clip-path="none" />
    <polygon
       style="fill:#008a57"
       points="360.985,540.798 361.374,540.104 362.834,540.104 362.834,546.816 362.09,546.816 362.09,540.798 360.985,540.798 "
       id="polygon4003"
       clip-path="none"
       transform="matrix(19.403138,0,0,19.403138,-5706.0206,-10101.389)" />
    <path
       style="fill:#008a57"
       d="M 867.33569,458.03154 L 889.51347,405.8565 L 911.16737,458.03154 L 867.33569,458.03154 z M 892.50156,378.16822 L 887.14629,378.16822 L 830.06226,508.53791 L 845.85641,508.53791 L 861.51474,471.53612 L 916.85249,471.53612 L 932.16157,508.53791 L 948.14976,508.53791 L 892.50156,378.16822 z "
       id="path4005"
       clip-path="none" />
    <path
       style="fill:#003772"
       id="path4015"
       d="M 655.47282,489.48402 C 632.80996,489.48402 613.75607,473.20479 610.32172,450.17327 L 653.22206,450.17327 C 657.95642,450.17327 668.2983,451.18223 668.2983,451.18223 L 668.2983,432.08954 C 668.2983,432.08954 658.15045,432.82686 652.50414,432.82686 L 610.32172,432.82686 C 614.57101,410.24161 633.0622,394.64149 655.47282,394.64149 C 667.26993,394.64149 681.84169,400.09377 681.84169,400.09377 L 682.11333,380.01152 C 682.11333,380.01152 671.77146,376.05328 655.47282,376.05328 C 617.75312,376.05328 584.72898,405.04157 584.72898,441.98514 C 584.72898,481.9362 617.73372,508.88716 655.47282,508.88716 C 673.20729,508.88716 683.8014,504.13339 683.8014,504.13339 L 683.29692,483.37204 C 683.27752,483.35263 670.23861,489.48402 655.47282,489.48402"
       clip-path="none" />
    <path
       style="fill:#003772"
       id="path4017"
       d="M 527.10166,508.38268 C 527.10166,508.38268 528.53749,498.73932 528.53749,490.29896 L 528.53749,398.63853 L 522.36729,398.63853 C 513.96574,398.63853 500.96563,398.63853 491.38048,399.56988 L 490.56555,378.26524 L 590.66634,378.26524 L 590.16186,399.56988 C 580.26626,398.63853 567.49899,398.63853 558.8646,398.63853 L 551.25857,398.63853 L 551.25857,490.29896 C 551.25857,498.73932 552.94664,508.38268 552.94664,508.38268 L 527.10166,508.38268 z "
       clip-path="none" />
    <path
       style="fill:#008a57"
       id="path4019"
       d="M 682.30736,367.65172 C 674.95357,365.57558 665.31021,364.12035 657.2191,364.12035 C 635.23535,364.12035 616.31729,370.83384 600.48433,384.95932 L 600.75597,369.32039 C 617.50088,357.85314 636.47715,352.73071 657.2191,352.73071 C 666.31918,352.73071 674.21625,353.97251 682.5596,356.16506 L 682.30736,367.65172 z "
       clip-path="none" />
    <path
       style="fill:#003772"
       id="path4021"
       d="M 431.17255,441.44185 L 412.48732,441.44185 L 412.48732,394.137 C 412.48732,394.137 421.56799,393.88476 432.39494,393.88476 C 434.02481,393.88476 435.59646,394.02058 436.99349,394.07879 C 454.3787,395.51463 461.53846,405.02216 461.53846,416.47002 C 461.53846,429.31489 451.44883,439.01646 436.99349,441.112 C 435.15019,441.34484 433.17107,441.44185 431.17255,441.44185 M 482.26101,490.5512 L 447.47118,456.84795 C 468.89225,454.81062 486.87896,438.95825 486.87896,418.42973 C 486.87896,396.5818 474.36393,377.25627 437.01289,375.68462 C 435.46064,375.60701 433.85018,375.5488 432.16211,375.5488 C 406.31713,375.5488 388.60206,376.7906 388.60206,376.7906 C 388.60206,376.7906 389.78565,389.61607 389.78565,396.05791 L 389.78565,490.5512 C 389.78565,499.2438 388.09758,508.38268 388.09758,508.38268 L 414.1948,508.38268 C 414.1948,508.38268 412.50673,499.2438 412.50673,488.84372 L 412.50673,450.4061 L 437.03229,476.19287 L 449.4503,489.11536 C 457.09514,497.51692 470.42509,508.38268 470.42509,508.38268 L 504.88507,508.38268 C 504.86566,508.38268 489.44017,497.51692 482.26101,490.5512"
       clip-path="none" />
  </g>
</svg>

<svg xmlns="http://www.w3.org/2000/svg" viewBox="0 0 946 158"><g transform="translate(-388.1-352.73)"><g fill="#008a57"><path d="m763.08 451.36h3.628l39.19 57.22h17.696l-41.25-58.44c19.946-1.727 32.481-15.911 32.481-35.973 0-29.376-22.857-35.954-47.4-35.954h-18.763v130.35h14.436v-57.2h-.019m0-59.665h4.327c17.346 0 32.966 2.076 32.966 23.497 0 20.257-16.493 23.342-32.811 23.342h-4.463v-46.839h-.019"/><path d="m961.95 508.54h24.04c20.257 0 35.721-2.581 51.17-16.415 14.222-12.767 21.13-29.512 21.13-48.51 0-19.345-6.713-36.788-21.479-49.594-15.27-13.12-31.06-15.717-50.47-15.717h-24.39v130.23m14.436-13.466v-103.24h10.458c15.27 0 28.348 2.037 40.16 12.573 11.157 9.857 16.822 24.18 16.822 39.06 0 14.475-5.491 28.12-16.14 38.15-11.836 11.234-25.05 13.466-40.844 13.466h-10.458"/><path d="m1078.58 378.34h14.41v130.2h-14.41z"/><path d="m1180.13 376.13c-36.885 0-67.43 30.23-67.43 67.48 0 37.448 30.521 67.12 67.43 67.12 36.846 0 67.41-29.667 67.41-67.12 0-37.27-30.56-67.48-67.41-67.48m0 13.466c29.648 0 52.99 24.332 52.99 53.805 0 29.357-23.672 53.824-52.99 53.824-29.357 0-52.99-24.487-52.99-53.824-.019-29.473 23.323-53.805 52.99-53.805"/><path transform="matrix(19.40314 0 0 19.40314-5706.02-10101.39)" d="m360.99 540.8l.38-.7h1.46v6.72h-.74v-6.02h-1.1"/><path d="m867.34 458.03l22.18-52.18 21.654 52.18h-43.832m25.17-79.86h-5.355l-57.08 130.37h15.794l15.658-37h55.34l15.309 37h15.988l-55.648-130.37"/></g><g fill="#003772"><path d="m655.47 489.48c-22.663 0-41.717-16.279-45.15-39.31h42.9c4.734 0 15.08 1.01 15.08 1.01v-19.09c0 0-10.148.737-15.794.737h-42.18c4.249-22.585 22.74-38.19 45.15-38.19 11.797 0 26.369 5.452 26.369 5.452l.272-20.08c0 0-10.342-3.958-26.641-3.958-37.72 0-70.74 28.988-70.74 65.932 0 39.951 33 66.902 70.74 66.902 17.734 0 28.329-4.754 28.329-4.754l-.504-20.761c-.019-.019-13.06 6.112-27.824 6.112"/><path d="m527.1 508.38c0 0 1.436-9.643 1.436-18.08v-91.66h-6.17c-8.402 0-21.402 0-30.987.931l-.815-21.305h100.1l-.504 21.305c-9.896-.931-22.663-.931-31.3-.931h-7.606v91.66c0 8.44 1.688 18.08 1.688 18.08h-25.845"/></g><path d="m682.31 367.65c-7.354-2.076-16.997-3.531-25.09-3.531-21.984 0-40.902 6.713-56.735 20.839l.272-15.639c16.745-11.467 35.721-16.59 56.46-16.59 9.1 0 16.997 1.242 25.341 3.434l-.252 11.487" fill="#008a57"/><path d="m431.17 441.44h-18.685v-47.3c0 0 9.08-.252 19.908-.252 1.63 0 3.202.136 4.599.194 17.385 1.436 24.545 10.943 24.545 22.391 0 12.845-10.09 22.546-24.545 24.642-1.843.233-3.822.33-5.821.33m51.09 49.11l-34.79-33.703c21.421-2.037 39.41-17.89 39.41-38.42 0-21.848-12.515-41.17-49.866-42.745-1.552-.078-3.163-.136-4.851-.136-25.845 0-43.56 1.242-43.56 1.242 0 0 1.184 12.825 1.184 19.267v94.49c0 8.693-1.688 17.831-1.688 17.831h26.1c0 0-1.688-9.139-1.688-19.539v-38.438l24.526 25.787 12.418 12.922c7.645 8.402 20.975 19.267 20.975 19.267h34.46c-.019 0-15.445-10.866-22.624-17.831" fill="#003772"/></g></svg>
